;FLAVOR:UltiGCode
;TIME:8806
;MATERIAL:9257
;MATERIAL2:0
;NOZZLE_DIAMETER:0.4
;MINX:62.16
;MINY:89.358
;MINZ:0.27
;MAXX:161.556
;MAXY:134.149
;MAXZ:17.67
;TARGET_MACHINE.NAME:Ultimaker 2+
;Generated with Cura_SteamEngine 5.6.0
M82 ;absolute extrusion mode
G0 F3000 Y50 ;avoid prime blob
G92 E0
G92 E0
G10
;LAYER_COUNT:175
;LAYER:0
M107
G0 F7200 X65.817 Y90.373 Z0.27
;TYPE:SKIRT
G11
G1 F1800 X68.889 Y89.37 E0.34901
G1 X78.246 Y89.367 E1.35957
G1 X80.861 Y90.236 E1.65717
G1 X81.361 Y90.671 E1.72875
G1 X81.862 Y90.387 E1.79095
G1 X84.264 Y89.649 E2.06233
G1 X86.819 Y89.649 E2.33827
G1 X89.049 Y90.097 E2.58392
G1 X90.102 Y90.669 E2.71334
G1 X90.364 Y90.48 E2.74823
G1 X93.281 Y89.368 E3.08538
G1 X126.03 Y89.358 E6.62228
G1 X128.691 Y90.237 E6.92494
G1 X129.19 Y90.669 E6.99622
G1 X130.359 Y90.052 E7.13898
G1 X132.935 Y89.593 E7.42157
G1 X134.795 Y89.693 E7.62274
G1 X137.278 Y90.107 E7.8946
G1 X138.084 Y90.646 E7.99932
G1 X138.276 Y90.514 E8.02449
G1 X141.277 Y89.358 E8.37181
G1 X152.527 Y89.37 E9.58681
G1 X155.18 Y89.88 E9.87858
G1 X157.974 Y91.655 E10.23607
G1 X159.79 Y93.697 E10.53121
G1 X160.648 Y96.446 E10.84222
G1 X160.655 Y106.735 E11.95344
G1 X161.556 Y108.615 E12.17859
G1 X161.556 Y114.292 E12.7917
G1 X161.028 Y116.464 E13.03311
G1 X160.652 Y117 E13.10382
G1 X160.649 Y127.309 E14.2172
G1 X159.554 Y130.113 E14.5423
G1 X158.27 Y131.824 E14.77333
G1 X156.59 Y132.705 E14.97821
G1 X155.105 Y133.673 E15.16965
G1 X152.834 Y134.05 E15.41828
G1 X141.564 Y134.149 E16.63548
G1 X138.987 Y133.502 E16.92244
G1 X138.112 Y132.757 E17.04655
G1 X135.679 Y133.55 E17.32292
G1 X131.697 Y133.55 E17.75298
G1 X129.769 Y133.13 E17.96608
G1 X129.228 Y132.8 E18.03452
G1 X128.954 Y133.003 E18.07135
G1 X126.013 Y134.13 E18.4115
G1 X93.257 Y134.13 E21.94915
G1 X90.537 Y133.239 E22.25827
G1 X89.809 Y132.541 E22.36719
G1 X89.621 Y132.638 E22.39004
G1 X87.225 Y133.346 E22.65987
G1 X84.261 Y133.346 E22.97998
G1 X82.011 Y132.681 E23.23337
G1 X81.649 Y132.493 E23.27743
G1 X80.079 Y133.611 E23.48559
G1 X77.679 Y134.13 E23.75078
G1 X68.981 Y134.13 E24.69016
G1 X67.053 Y133.71 E24.90327
G1 X65.233 Y132.6 E25.1335
G1 X63.151 Y130.454 E25.45642
G1 X62.16 Y127.397 E25.80349
G1 X62.16 Y95.8 E29.21597
G1 X63.05 Y93.182 E29.5146
G1 X63.25 Y92.866 E29.55499
G1 X65.817 Y90.373 E29.94145
G0 F7200 X66.03 Y90.724
G1 F1800 X68.952 Y89.77 E30.27342
G1 X78.18 Y89.767 E31.27005
G1 X80.735 Y90.616 E31.56082
G1 X81.3 Y91.172 E31.64643
G1 X81.979 Y90.769 E31.73171
G1 X84.322 Y90.049 E31.99643
G1 X86.78 Y90.049 E32.26189
G1 X88.912 Y90.477 E32.49674
G1 X90.15 Y91.15 E32.64893
G1 X90.506 Y90.854 E32.69893
G1 X93.355 Y89.768 E33.02822
G1 X125.966 Y89.758 E36.5502
G1 X128.566 Y90.617 E36.84593
G1 X129.118 Y91.16 E36.92956
G1 X130.491 Y90.435 E37.09725
G1 X132.962 Y89.995 E37.36831
G1 X134.729 Y90.088 E37.55941
G1 X137.13 Y90.488 E37.82229
G1 X138.109 Y91.143 E37.94951
G1 X138.42 Y90.887 E37.99301
G1 X141.351 Y89.758 E38.33223
G1 X152.488 Y89.77 E39.53503
G1 X155.028 Y90.258 E39.81436
G1 X157.713 Y91.964 E40.15793
G1 X159.434 Y93.899 E40.43761
G1 X160.248 Y96.507 E40.73267
G1 X160.255 Y106.827 E41.84723
G1 X161.156 Y108.707 E42.07238
G1 X161.156 Y114.242 E42.67016
G1 X160.656 Y116.298 E42.89868
G1 X160.252 Y116.874 E42.97467
G1 X160.249 Y127.232 E44.09333
G1 X159.2 Y129.918 E44.40476
G1 X158.004 Y131.512 E44.61998
G1 X156.389 Y132.359 E44.81693
G1 X154.959 Y133.291 E45.00128
G1 X152.768 Y133.655 E45.24115
G1 X141.611 Y133.749 E46.44615
G1 X139.174 Y133.137 E46.71752
G1 X138.201 Y132.308 E46.85557
G1 X135.616 Y133.15 E47.14919
G1 X131.741 Y133.15 E47.56769
G1 X129.918 Y132.753 E47.76919
G1 X129.189 Y132.308 E47.86143
G1 X128.811 Y132.629 E47.91498
G1 X125.938 Y133.73 E48.24727
G1 X93.32 Y133.73 E51.77002
G1 X90.749 Y132.888 E52.0622
G1 X89.87 Y132.045 E52.19373
G1 X89.508 Y132.254 E52.23887
G1 X87.166 Y132.946 E52.50262
G1 X84.32 Y132.946 E52.80999
G1 X82.124 Y132.297 E53.0573
G1 X81.621 Y132.021 E53.11926
G1 X79.914 Y133.238 E53.34567
G1 X77.637 Y133.73 E53.59727
G1 X69.025 Y133.73 E54.52736
G1 X67.202 Y133.333 E54.72886
G1 X65.487 Y132.287 E54.94581
G1 X63.503 Y130.242 E55.25353
G1 X62.56 Y127.333 E55.5838
G1 X62.56 Y95.867 E58.98213
G1 X63.429 Y93.311 E59.27369
G1 X63.529 Y93.153 E59.29389
G1 X66.03 Y90.724 E59.67042
G0 F7200 X66.243 Y91.075
G1 F1800 X69.015 Y90.17 E59.98535
G1 X78.114 Y90.167 E60.96804
G1 X80.522 Y90.967 E61.24208
G1 X81.24 Y91.673 E61.35083
G1 X82.144 Y91.136 E61.46439
G1 X84.38 Y90.449 E61.71702
G1 X86.741 Y90.449 E61.97201
G1 X88.772 Y90.857 E62.19574
G1 X90.214 Y91.64 E62.37295
G1 X90.648 Y91.228 E62.43758
G1 X93.429 Y90.168 E62.759
G1 X125.901 Y90.158 E66.26598
G1 X128.352 Y90.968 E66.54477
G1 X129.046 Y91.651 E66.64993
G1 X130.623 Y90.818 E66.84255
G1 X132.99 Y90.397 E67.1022
G1 X134.663 Y90.483 E67.28312
G1 X136.98 Y90.869 E67.5368
G1 X138.154 Y91.654 E67.68933
G1 X138.564 Y91.26 E67.75074
G1 X141.425 Y90.158 E68.08186
G1 X152.448 Y90.17 E69.27234
G1 X154.877 Y90.637 E69.53948
G1 X157.452 Y92.273 E69.86896
G1 X159.078 Y94.101 E70.13318
G1 X159.848 Y96.568 E70.4123
G1 X159.855 Y106.919 E71.5302
G1 X160.756 Y108.799 E71.75536
G1 X160.756 Y114.193 E72.33791
G1 X160.285 Y116.131 E72.55331
G1 X159.852 Y116.748 E72.63471
G1 X159.849 Y127.156 E73.75878
G1 X158.847 Y129.722 E74.05629
G1 X157.738 Y131.2 E74.25585
G1 X156.188 Y132.013 E74.44488
G1 X154.812 Y132.91 E74.62227
G1 X152.703 Y133.26 E74.85316
G1 X141.659 Y133.349 E76.04595
G1 X139.361 Y132.772 E76.30184
G1 X138.245 Y131.821 E76.46019
G1 X138.045 Y131.942 E76.48544
G1 X135.551 Y132.75 E76.76857
G1 X131.785 Y132.75 E77.1753
G1 X130.067 Y132.376 E77.36519
G1 X129.133 Y131.806 E77.48336
G1 X128.668 Y132.255 E77.55317
G1 X125.863 Y133.33 E77.8776
G1 X93.383 Y133.33 E81.38544
G1 X90.961 Y132.537 E81.66068
G1 X89.922 Y131.54 E81.8162
G1 X89.395 Y131.87 E81.88335
G1 X87.107 Y132.546 E82.14101
G1 X84.379 Y132.546 E82.43564
G1 X82.237 Y131.913 E82.67686
G1 X81.597 Y131.546 E82.75654
G1 X79.748 Y132.865 E83.00184
G1 X77.595 Y133.33 E83.23972
G1 X69.069 Y133.33 E84.16053
G1 X67.351 Y132.956 E84.35042
G1 X65.741 Y131.974 E84.55409
G1 X63.855 Y130.03 E84.84661
G1 X62.96 Y127.269 E85.16008
G1 X62.96 Y95.934 E88.54426
G1 X63.808 Y93.44 E88.82875
G1 X66.243 Y91.075 E89.19536
G0 F7200 X66.456 Y91.426
G1 F1800 X69.078 Y90.57 E89.49324
G1 X78.048 Y90.567 E90.462
G1 X80.308 Y91.318 E90.7192
G1 X81.179 Y92.175 E90.85117
G1 X82.309 Y91.503 E90.99316
G1 X84.438 Y90.849 E91.2337
G1 X86.702 Y90.849 E91.47821
G1 X88.635 Y91.237 E91.69114
G1 X90.299 Y92.141 E91.89566
G1 X90.79 Y91.602 E91.9744
G1 X93.503 Y90.568 E92.28796
G1 X125.837 Y90.558 E95.78004
G1 X128.137 Y91.318 E96.04165
G1 X128.974 Y92.142 E96.1685
G1 X130.755 Y91.201 E96.38604
G1 X133.014 Y90.799 E96.63385
G1 X134.597 Y90.878 E96.80502
G1 X136.83 Y91.25 E97.04951
G1 X138.222 Y92.18 E97.23031
G1 X138.708 Y91.633 E97.30934
G1 X141.499 Y90.558 E97.63235
G1 X152.409 Y90.57 E98.81063
G1 X154.725 Y91.015 E99.06534
G1 X157.191 Y92.582 E99.38089
G1 X158.722 Y94.303 E99.62966
G1 X159.448 Y96.629 E99.89282
G1 X159.455 Y107.011 E101.01407
G1 X160.356 Y108.891 E101.23923
G1 X160.356 Y114.143 E101.80644
G1 X159.913 Y115.965 E102.00895
G1 X159.452 Y116.622 E102.09563
G1 X159.449 Y127.079 E103.22499
G1 X158.493 Y129.527 E103.50882
G1 X157.472 Y130.888 E103.69257
G1 X155.987 Y131.667 E103.87368
G1 X154.666 Y132.528 E104.04397
G1 X152.637 Y132.865 E104.26611
G1 X141.707 Y132.949 E105.44658
G1 X139.55 Y132.407 E105.68678
G1 X138.263 Y131.311 E105.86935
G1 X137.922 Y131.561 E105.91501
G1 X135.487 Y132.35 E106.19145
G1 X131.829 Y132.35 E106.58652
G1 X130.216 Y131.999 E106.7648
G1 X129.059 Y131.293 E106.91118
G1 X128.525 Y131.881 E106.99696
G1 X125.788 Y132.93 E107.31353
G1 X93.446 Y132.93 E110.80646
G1 X91.173 Y132.186 E111.06476
G1 X89.974 Y131.036 E111.24419
G1 X89.231 Y131.501 E111.33885
G1 X87.048 Y132.146 E111.58469
G1 X84.438 Y132.146 E111.86657
G1 X82.394 Y131.542 E112.09676
G1 X81.574 Y131.071 E112.19889
G1 X79.583 Y132.491 E112.463
G1 X77.552 Y132.93 E112.68742
G1 X69.113 Y132.93 E113.59883
G1 X67.5 Y132.579 E113.77711
G1 X65.995 Y131.661 E113.9675
G1 X64.207 Y129.818 E114.24482
G1 X63.36 Y127.205 E114.54148
G1 X63.36 Y96.001 E117.91151
G1 X64.156 Y93.66 E118.17856
G1 X66.456 Y91.426 E118.52485
G0 F7200 X66.669 Y91.777
G1 F1800 X69.141 Y90.97 E118.80569
G1 X77.982 Y90.967 E119.76052
G1 X80.095 Y91.669 E120.00098
G1 X81.119 Y92.676 E120.15609
G1 X82.473 Y91.871 E120.32622
G1 X84.497 Y91.249 E120.5549
G1 X86.663 Y91.249 E120.78883
G1 X88.495 Y91.617 E120.99063
G1 X90.383 Y92.642 E121.22265
G1 X91.021 Y91.943 E121.32486
G1 X93.578 Y90.968 E121.62041
G1 X125.773 Y90.958 E125.09747
G1 X127.922 Y91.668 E125.3419
G1 X128.975 Y92.706 E125.50159
G1 X129.276 Y92.435 E125.54533
G1 X130.887 Y91.584 E125.7421
G1 X133.038 Y91.201 E125.97807
G1 X134.531 Y91.273 E126.1395
G1 X136.68 Y91.631 E126.37479
G1 X138.289 Y92.706 E126.58378
G1 X138.943 Y91.971 E126.69003
G1 X141.573 Y90.958 E126.99441
G1 X152.369 Y90.97 E128.16038
G1 X154.574 Y91.394 E128.40288
G1 X156.93 Y92.891 E128.70435
G1 X158.366 Y94.505 E128.93767
G1 X159.048 Y96.69 E129.18488
G1 X159.055 Y107.103 E130.30948
G1 X159.956 Y108.983 E130.53463
G1 X159.956 Y114.093 E131.08651
G1 X159.541 Y115.799 E131.27613
G1 X159.052 Y116.496 E131.36809
G1 X159.049 Y127.002 E132.50274
G1 X158.139 Y129.332 E132.77289
G1 X157.206 Y130.576 E132.94083
G1 X155.786 Y131.321 E133.11401
G1 X154.519 Y132.147 E133.27736
G1 X152.572 Y132.47 E133.49051
G1 X141.755 Y132.549 E134.65878
G1 X139.737 Y132.042 E134.88349
G1 X138.263 Y130.786 E135.09264
G1 X137.799 Y131.18 E135.15838
G1 X135.423 Y131.95 E135.42813
G1 X131.873 Y131.95 E135.81153
G1 X130.365 Y131.622 E135.9782
G1 X128.985 Y130.78 E136.15279
G1 X128.292 Y131.542 E136.26403
G1 X125.715 Y132.53 E136.5621
G1 X93.51 Y132.53 E140.04024
G1 X91.385 Y131.834 E140.28174
G1 X90.026 Y130.532 E140.485
G1 X89.067 Y131.132 E140.60717
G1 X86.989 Y131.746 E140.84119
G1 X84.497 Y131.746 E141.11032
G1 X82.551 Y131.171 E141.32947
G1 X81.47 Y130.55 E141.46412
G1 X81.231 Y130.824 E141.50338
G1 X79.417 Y132.118 E141.74403
G1 X77.51 Y132.53 E141.95474
G1 X69.157 Y132.53 E142.85686
G1 X67.649 Y132.202 E143.02354
G1 X66.249 Y131.348 E143.20065
G1 X64.559 Y129.606 E143.46277
G1 X63.76 Y127.141 E143.74263
G1 X63.76 Y96.068 E147.09851
G1 X64.504 Y93.88 E147.3481
G1 X66.669 Y91.777 E147.67407
G0 F7200 X66.882 Y92.128
G1 F1800 X69.204 Y91.37 E147.93787
G1 X77.916 Y91.367 E148.87877
G1 X79.882 Y92.02 E149.1025
G1 X81.059 Y93.177 E149.28075
G1 X82.638 Y92.238 E149.47916
G1 X84.555 Y91.649 E149.69575
G1 X86.624 Y91.649 E149.9192
G1 X88.355 Y91.997 E150.10989
G1 X90.101 Y92.945 E150.32446
G1 X90.386 Y93.231 E150.36806
G1 X91.252 Y92.283 E150.50674
G1 X93.652 Y91.368 E150.78413
G1 X125.709 Y91.358 E154.24629
G1 X127.707 Y92.018 E154.47354
G1 X128.972 Y93.265 E154.66538
G1 X129.463 Y92.789 E154.73924
G1 X131.019 Y91.967 E154.9293
G1 X133.063 Y91.603 E155.15352
G1 X134.465 Y91.668 E155.3051
G1 X136.53 Y92.012 E155.53119
G1 X138.356 Y93.232 E155.76837
G1 X139.178 Y92.309 E155.90185
G1 X141.647 Y91.358 E156.1876
G1 X152.33 Y91.37 E157.34136
G1 X154.422 Y91.772 E157.57143
G1 X156.669 Y93.2 E157.85897
G1 X158.01 Y94.707 E158.07683
G1 X158.648 Y96.751 E158.30809
G1 X158.655 Y107.242 E159.44112
G1 X158.77 Y107.435 E159.46538
G1 X159.556 Y109.075 E159.66179
G1 X159.556 Y114.044 E160.19844
G1 X159.17 Y115.632 E160.37494
G1 X158.652 Y116.37 E160.47232
G1 X158.649 Y126.926 E161.61237
G1 X157.786 Y129.136 E161.8686
G1 X156.94 Y130.264 E162.02088
G1 X155.585 Y130.975 E162.18614
G1 X154.373 Y131.765 E162.34239
G1 X152.506 Y132.075 E162.54679
G1 X141.803 Y132.149 E163.70274
G1 X139.924 Y131.677 E163.91198
G1 X138.245 Y130.246 E164.15023
G1 X137.676 Y130.799 E164.23593
G1 X135.359 Y131.55 E164.49898
G1 X131.917 Y131.55 E164.87071
G1 X130.514 Y131.245 E165.02578
G1 X129.265 Y130.483 E165.18379
G1 X128.972 Y130.2 E165.22779
G1 X128.061 Y131.202 E165.37404
G1 X125.64 Y132.13 E165.65406
G1 X93.573 Y132.13 E169.1173
G1 X91.597 Y131.483 E169.34185
G1 X90.078 Y130.028 E169.56902
G1 X88.903 Y130.763 E169.71871
G1 X86.93 Y131.346 E169.9409
G1 X84.556 Y131.346 E170.19729
G1 X82.708 Y130.8 E170.4054
G1 X81.372 Y130.033 E170.57178
G1 X80.999 Y130.498 E170.63616
G1 X79.251 Y131.745 E170.86806
G1 X77.468 Y132.13 E171.06506
G1 X69.201 Y132.13 E171.95789
G1 X67.798 Y131.825 E172.11296
G1 X66.503 Y131.035 E172.27679
G1 X64.911 Y129.394 E172.52371
G1 X64.16 Y127.077 E172.78677
G1 X64.16 Y96.135 E176.1285
G1 X64.852 Y94.1 E176.36064
G1 X66.882 Y92.128 E176.6663
G0 F7200 X67.095 Y92.479
G1 F1800 X69.267 Y91.77 E176.91305
G1 X77.85 Y91.767 E177.84002
G1 X79.668 Y92.371 E178.04691
G1 X81.09 Y93.77 E178.26235
G1 X81.348 Y93.47 E178.30509
G1 X82.803 Y92.605 E178.4879
G1 X84.613 Y92.049 E178.69239
G1 X86.585 Y92.049 E178.90537
G1 X88.218 Y92.377 E179.08526
G1 X89.91 Y93.296 E179.29321
G1 X90.379 Y93.831 E179.37005
G1 X91.482 Y92.624 E179.54663
G1 X93.727 Y91.768 E179.80612
G1 X125.644 Y91.758 E183.25316
G1 X127.493 Y92.369 E183.46347
G1 X128.969 Y93.824 E183.68731
G1 X129.698 Y93.118 E183.79691
G1 X131.151 Y92.35 E183.97441
G1 X133.088 Y92.005 E184.18689
G1 X134.446 Y92.068 E184.33372
G1 X136.378 Y92.392 E184.54529
G1 X138.237 Y93.634 E184.78674
G1 X138.388 Y93.797 E184.81074
G1 X139.413 Y92.647 E184.97711
G1 X141.721 Y91.758 E185.24423
G1 X152.291 Y91.77 E186.38579
G1 X154.27 Y92.15 E186.60343
G1 X156.408 Y93.509 E186.87703
G1 X157.654 Y94.909 E187.07944
G1 X158.248 Y96.812 E187.29474
G1 X158.255 Y107.355 E188.43339
G1 X158.409 Y107.608 E188.46538
G1 X159.156 Y109.167 E188.65208
G1 X159.156 Y113.994 E189.17339
G1 X158.798 Y115.466 E189.337
G1 X158.252 Y116.244 E189.43965
G1 X158.249 Y126.85 E190.5851
G1 X157.433 Y128.94 E190.82742
G1 X156.674 Y129.952 E190.96404
G1 X155.384 Y130.629 E191.12138
G1 X154.227 Y131.383 E191.27053
G1 X152.44 Y131.68 E191.46617
G1 X141.851 Y131.749 E192.60981
G1 X140.112 Y131.312 E192.80346
G1 X138.559 Y129.988 E193.02386
G1 X138.309 Y129.627 E193.07129
G1 X137.464 Y130.447 E193.19845
G1 X135.295 Y131.15 E193.4447
G1 X131.961 Y131.15 E193.80477
G1 X130.663 Y130.868 E193.94823
G1 X129.473 Y130.142 E194.09878
G1 X128.962 Y129.616 E194.17798
G1 X127.83 Y130.862 E194.35979
G1 X125.565 Y131.73 E194.62176
G1 X93.636 Y131.73 E198.07009
G1 X91.809 Y131.132 E198.2777
G1 X90.289 Y129.676 E198.50503
G1 X90.126 Y129.438 E198.53618
G1 X89.875 Y129.684 E198.57414
G1 X88.739 Y130.394 E198.71882
G1 X86.871 Y130.946 E198.92918
G1 X84.615 Y130.946 E199.17283
G1 X82.865 Y130.429 E199.36991
G1 X81.678 Y129.747 E199.51776
G1 X81.339 Y129.413 E199.56915
G1 X80.767 Y130.172 E199.6718
G1 X79.086 Y131.371 E199.8948
G1 X77.425 Y131.73 E200.07833
G1 X69.245 Y131.73 E200.96177
G1 X67.947 Y131.448 E201.10522
G1 X66.757 Y130.722 E201.25577
G1 X65.263 Y129.182 E201.48749
G1 X64.56 Y127.013 E201.73374
G1 X64.56 Y96.202 E205.06133
G1 X65.2 Y94.32 E205.27602
G1 X67.095 Y92.479 E205.56136
G0 F7200 X67.308 Y92.83
G1 F1800 X69.33 Y92.17 E205.79107
G1 X77.784 Y92.167 E206.7041
G1 X79.454 Y92.722 E206.89416
G1 X81.141 Y94.382 E207.14977
G1 X81.552 Y93.814 E207.22549
G1 X82.967 Y92.973 E207.40327
G1 X84.672 Y92.449 E207.59591
G1 X86.546 Y92.449 E207.7983
G1 X88.078 Y92.757 E207.96707
G1 X89.656 Y93.614 E208.161
G1 X90.373 Y94.431 E208.2784
G1 X91.713 Y92.964 E208.49298
G1 X93.801 Y92.168 E208.73432
G1 X125.58 Y92.158 E212.16645
G1 X127.278 Y92.719 E212.35958
G1 X128.967 Y94.384 E212.61573
G1 X129.935 Y93.445 E212.76138
G1 X131.283 Y92.733 E212.92602
G1 X133.113 Y92.407 E213.12677
G1 X134.427 Y92.468 E213.26884
G1 X136.226 Y92.772 E213.46588
G1 X138.015 Y93.967 E213.69823
G1 X138.362 Y94.428 E213.76055
G1 X139.648 Y92.985 E213.9693
G1 X141.795 Y92.158 E214.21778
G1 X152.252 Y92.17 E215.34714
G1 X154.12 Y92.529 E215.55258
G1 X156.146 Y93.816 E215.8118
G1 X157.298 Y95.111 E215.99899
G1 X157.848 Y96.873 E216.19834
G1 X157.855 Y107.468 E217.3426
G1 X158.067 Y107.816 E217.38661
G1 X158.756 Y109.258 E217.55921
G1 X158.756 Y113.944 E218.0653
G1 X158.427 Y115.297 E218.21568
G1 X157.852 Y116.117 E218.32384
G1 X157.849 Y126.774 E219.4748
G1 X157.08 Y128.744 E219.7032
